X:3
T:Balkan Kroszpatzche
C:Neil Brookes
N:A version of Crosspatch - loosely in 7/8, but maybe not quite!
M:7/8
L:1/8
Q:1/4=180
K:Dmix
|dABGFGA/2B/2|c2B2A2G|FGABc2A/2A/2|B2GF2D2|
|dABGFGA/2B/2|c2B2A2G|FGABc2A/2A/2|B2GF2DD|
|FDADBDA|FDADBDA|EDEFG2F|EDEFGE/2z/2E/2z/2|FDADBDA|FDADBDA|c2BA2G2|A/B/2
cBA2G2|
|FDADBDA|FDADBDA|EDEFG2F|EDEFGE/2z/2E/2z/2|FDADBDA|FDADBDA|c2BA2G2|DEFGA
BcA|
